X:1
T:Vagnshusschottis
R:Schottis
Z:David Rönnlund, 09-02-19
O:Österbybruk, Uppland
S:Efter Justus Gille
S:Efter Viktor Vickman
M:2/4
L:1/8
N: [[!Sverige]], [[!Uppland]], [[!Österbybruk]]
K:C
|:ee/d/ ee/d/|c/c/c/e/ gg|B/B/B/d/ (f/d/)B/d/|cc/e/g2|
ee/d/ ee/d/|c/c/c/e/ gg|B/B/B/d/ (f/d/)B/d/|ce c2::
fa fa| c/c/c/e/ gg|B/B/B/d/ (f/d/)B/d/|cc/e/g2|
fa fa| c/c/c/e/ gg|B/B/B/d/ (f/d/)B/d/|ce c2:|

